X:1
T:Forever with Jesus There
T:Forever with Jesus There
T:James McGranahan
T:Arthur Tappan Pierson, 1877
T:Public Domain Courtesy of the Cyber Hymnal™
C:James McGranahan
Z:Public Domain
Z:Courtesy of the Cyber Hymnal™
%%score 1 ( 2 3 )
L:1/8
Q:1/4=90
M:6/8
K:Bb
V:1 treble 
V:2 bass 
V:3 bass 
V:1
 [DF]/[DF]/ | [DB]2 [DB] [DB][CA][DB] | [Ec][Ec][CA] [DB]2 [DB]/[Ec]/ | [Fd]2 [=Ec] [Fd][Fd][FB] | %4
w: 1.~In my|Fa- ther’s house there is|ma- ny a room, And my|Lord has gone to pre-|
w: 2.~In my|Fa- ther’s house there is|en- d- less day, With no|cloud of sor- row or|
w: 3.~In my|Fa- ther’s house there’s no|wa- nt or woe, And there|can be n- o more|
w: 4.~In my|Fa- ther’s house there is|n- o more death, For the|life of Go- d we|
w: 5.~In my|Fa- ther’s house there are|ble- ss- èd saints, Who His|ho- ly i- m- age|
 [Fc]3- [Fc]2 [EF] | [DB]2 [Fd] [Fd]2 [DF] | [EG]2 [Ge] !fermata![Ge]2 [Ge] | %7
w: pare * A|place for me; O|can it be That|
w: care, * No|tear- ful eyes, no|groans or sighs, They|
w: prayer; * For|what be- side can|God pro- vide, Since|
w: share; * No|thought of sin can|en- ter in, For|
w: bear; * They|find in this their|sweet- est bliss, That|
 [Fd]>[Ec][DB] [Ec]2 [CA] | [DB]3- [DB]2 ||"^Refrain" [DB] | [Fc]<[Fc][Fc] [Fc]2 [Fd] | %11
w: I shall be with Him|there? *|||
w: know who are with Him|there. *|||
w: we shall be with Him|there. *|For-|ev- er with Je- sus|
w: we shall be with Him|there. *|||
w: they may be with Him|there. *|||
 [Fc]3- [Fc]2 [Fc] | [Fd]<[Fd][Fd] [Fd]2 [Ge] | [Fd]3- [Fd]2 [Ae] | [Bf]2 [Bd] [FB]2 [DF] | %15
w: ||||
w: ||||
w: there, * For-|ev- er with Je- sus|there, * What|grace di- vine, that|
w: ||||
w: ||||
 [EG]2 [EB] !fermata![Ge]2 [Ge] | [Fd]>[Ec][DB] [Ec]2 [CA] | [DB]3- [DB]2 |] %18
w: |||
w: |||
w: He is mine! And|I shall be with Him|there. *|
w: |||
w: |||
V:2
 [B,,B,]/[B,,B,]/ | [B,,F,]2 [B,,F,] [B,,F,][C,F,][A,,F,] | %2
 [F,A,][F,A,][F,C] [B,,B,]2 [B,,B,]/[B,,B,]/ | [B,,B,]2 [B,,B,] [B,,B,][B,,B,][D,B,] | %4
 [F,A,]3- [F,A,]2 F, | [B,,F,]2 [B,,B,] [B,,B,]2 [B,,B,] | [E,B,]2 [E,B,] !fermata![E,B,]2 [E,B,] | %7
 [F,B,]>[F,A,][F,B,] [F,A,]2 F, | [B,,F,]3- [B,,F,]2 || [B,,B,] | %10
 [F,A,]<[F,A,][F,A,] [F,A,]2 [F,B,] | [F,A,]3- [F,A,]2 [F,A,] | %12
 [B,,B,]<[B,,B,][B,,B,] [B,,B,]2 [B,,B,] | [B,,B,]3- [B,,B,]2 [F,C] | [B,D]2 [B,F] [B,D]2 B, | %15
 [E,B,]2 [E,G,] !fermata![E,B,]2 [E,B,] | [F,B,]>[F,A,][F,B,] [F,A,]2 F, | [B,,F,]3- [B,,F,]2 |] %18
V:3
 x | x6 | x6 | x6 | x5 F, | x6 | x6 | x5 F, | x5 || x | x6 | x6 | x6 | x6 | x5 B, | x6 | x5 F, | %17
 x5 |] %18

